fran-estre/RL/joint_velocities_log.csv
joint_0,joint_1,joint_2,joint_3,joint_4,joint_5,joint_6,joint_7,joint_8,joint_9,joint_10,joint_11
1.5648,8.3473,-38.0078,9.237,-21.0291,32.5041,4.2273,-6.7698,18.5064,4.9887,-16.1598,41.0035
0.3509,0.0403,1.5788,-9.4816,19.1246,-49.2345,-8.5417,40.2982,-53.798,-7.7746,12.6717,-46.1409
2.1632,-3.4266,0.3602,-1.798,-3.6921,2.2605,30.6685,-34.5749,68.3365,-2.3493,-6.51,8.2136
-10.2475,3.0974,20.8772,3.5591,-1.5081,2.8887,-14.8051,2.1479,-35.0733,-4.7779,0.0339,-18.944
-2.2591,-10.335,36.4901,8.2223,-2.0566,28.4617,-7.9473,2.3995,24.4206,3.1553,-5.8433,40.3508
6.579,-9.2486,19.4519,-4.2521,-10.8629,27.7283,2.5605,1.55,-0.1269,-7.8507,29.999,-53.2538
-6.6717,-1.2649,-47.2152,-8.8351,2.7775,-33.2467,3.7098,-2.0893,4.2354,2.6345,1.2835,47.8943
-10.1417,-7.1907,58.9245,3.9415,-39.6869,88.1545,-10.2741,29.3999,-79.2763,-0.4592,-1.4088,2.0481
10.6041,25.3536,-50.7728,-6.7002,2.5228,-0.5284,26.0155,-31.8262,71.1656,-9.3236,-20.9076,27.7765
-11.2334,-12.7405,60.5658,2.2418,-29.8375,47.247,-9.4151,-25.8159,52.907,10.832,-14.4698,32.2195
4.1289,11.1089,-24.1647,-12.853,-1.7608,-94.5,-3.3462,-12.2332,11.5358,44.7261,-10.8895,10.2113
28.5764,52.7833,-51.8178,37.7007,-8.7273,21.11,-4.6606,-29.6278,46.9044,-2.4929,-36.4845,-24.6503
-23.3175,-62.4857,49.7385,-38.9699,12.8063,-8.7473,-5.717,29.3695,-37.408,-34.7636,-82.8044,82.196
-14.3674,23.5654,-56.8952,-22.893,69.6062,0.1594,19.5413,40.6724,-26.1743,15.3244,6.3017,-100.0
-5.9135,-45.5431,85.3653,56.7265,15.1712,8.458,-21.9542,35.3153,9.3572,18.6539,32.9941,-6.0128
-7.2691,-2.6293,-2.5555,56.7884,-39.847,37.2644,-4.0632,17.6579,-3.7321,-39.0235,92.4423,1.2353
-18.9369,-53.9707,20.4656,0.9141,24.7875,15.0393,-8.3184,-5.4222,5.7186,21.5136,-54.8625,20.4272
33.833,5.3485,-66.2688,-12.6124,-6.9106,-7.9502,1.9894,-0.8712,-0.209,-20.2735,3.2649,-65.952
-37.1001,35.1334,40.4974,38.6688,-7.4693,1.6306,-5.5203,-3.3936,4.2274,4.0871,43.7175,36.4114
11.4493,15.3798,-64.436,-57.9013,-6.4326,35.6759,62.8592,-31.565,-47.2101,-62.4281,-16.261,-7.3527
27.2573,1.4762,10.9103,27.2991,-41.2162,-6.9942,-16.6439,-14.6281,13.825,27.0805,16.5799,-4.5232
6.0026,-5.9896,37.6081,5.405,-0.2524,1.1812,-18.8732,34.1385,-2.8475,5.5779,-0.1577,1.203
3.754,-19.1321,-41.6299,1.8953,0.0914,1.7556,14.4497,-16.8636,69.3669,-4.1564,8.7839,-7.1691
-12.9501,-0.9867,32.7434,-11.0399,0.5581,10.9556,30.8682,10.1967,-76.1202,-0.8086,2.8971,0.2599
11.9439,10.4817,34.3007,-3.5934,22.4934,-45.5749,-46.3245,-26.6058,48.617,-1.8334,11.4172,-1.4462
11.0969,4.1796,-67.3465,60.9092,27.3917,-15.7046,4.2152,37.4432,-73.7314,0.2469,34.3636,1.6613
9.5366,-0.5681,-2.6371,-7.5938,17.9896,-11.9242,18.5144,19.0391,47.2162,1.9612,30.3297,-1.5594
8.4322,33.8732,-26.891,-28.7969,8.2132,-6.5174,-24.8799,-5.843,-13.4685,1.6566,5.3905,1.4696
6.5534,10.1684,-32.8893,-12.7735,-0.9132,-11.8813,-12.0626,-59.5354,15.5649,0.5373,-0.3498,2.2119
5.4455,-16.8227,18.8527,31.573,-20.6534,-21.347,52.1092,-6.9021,-4.5891,-0.5039,-0.7032,2.6602
-0.5497,8.5,0.1146,-10.7932,-43.0885,21.5141,-7.0213,19.7568,0.8999,-0.6697,2.6173,0.1397
-9.1939,-7.1237,-23.0281,-41.2809,-14.9838,-11.1661,-23.0014,34.1493,30.9297,-1.2563,-0.6437,2.9174
-3.8604,10.8149,-10.8604,-4.6131,13.0389,7.0492,29.105,11.2238,-43.2401,1.0954,-13.3258,16.4367
1.2674,-8.6735,10.7585,10.7794,21.9325,-4.3151,-12.9663,-33.9854,3.2726,-0.3944,-28.5862,-5.6621
2.1073,27.5641,24.2236,77.947,25.8904,2.6075,-8.6387,-5.425,11.5714,2.7708,-24.6949,-18.1377
0.2589,33.1117,42.8936,5.5556,14.4038,-2.0401,42.0555,43.4681,-13.2458,-0.6515,-13.7783,11.4549
0.294,7.8559,-17.7241,-30.4843,0.4593,1.1127,-28.2442,7.7327,-38.0101,0.4959,7.3063,15.8387
0.9184,-43.9112,40.8697,-47.9631,25.4393,-1.3407,-23.8939,-13.7765,6.2251,-0.6213,40.3444,-7.7401
-22.4791,24.9137,3.9157,-10.5983,-2.166,8.873,27.4532,-50.386,13.8656,-10.6139,2.5459,0.2088
28.6215,-8.3274,11.7545,-4.9022,-2.5264,13.9446,-29.0534,12.7932,-75.4121,-4.9054,7.4334,-3.4544
-12.1403,-4.8381,-34.9991,10.6482,36.6889,-71.5352,8.9547,36.8606,-23.9975,2.5426,13.2453,-7.9598
-2.3988,4.0442,42.9193,40.4203,21.1204,-16.9746,17.615,-29.712,92.3797,0.5762,-17.9293,38.4644
33.2033,-7.3316,16.1529,-33.8403,23.1536,-13.5746,-0.381,31.0447,-97.0376,-10.8253,-4.7605,20.4943
-41.3082,14.7456,-43.6724,-20.53,8.9123,9.3969,-18.2001,-22.473,7.872,-0.1439,2.8916,-3.7659
-5.453,11.8906,-25.8411,8.4513,-16.2312,8.5345,-0.5904,-36.7944,100.0,1.4452,-9.0758,2.8138
29.9063,-21.7616,63.7322,44.5536,-20.3272,-6.7218,10.9783,-27.2255,28.1602,2.8904,-3.8313,1.3956
-3.682,4.2485,21.7617,-39.6541,-3.2689,-2.5885,8.7809,-11.3541,38.0069,2.9928,2.4628,-2.1069
-16.1916,11.372,-21.5395,21.3805,10.2853,-3.6706,-19.8126,1.2131,53.4774,10.202,10.9074,-7.1315
13.2667,0.1592,-1.571,-16.1614,19.8101,2.2174,-10.0351,20.109,-53.3035,7.4942,2.897,-2.763
1.2622,8.6279,4.9896,-23.1152,14.5648,-0.9864,-1.2564,-2.9998,3.1668,1.867,-4.5868,2.0566
-34.7411,-3.2402,0.8,13.587,-4.2148,-0.015,14.6533,7.638,9.3984,4.5035,-6.1783,2.4176
33.0915,-8.0282,2.2207,38.7303,-16.8632,-0.3336,0.0233,1.9694,-1.5612,-2.8759,0.3167,0.7085
16.3854,7.5111,1.1445,-22.9657,-11.851,0.4209,-4.8387,-0.7376,7.333,2.7438,0.0026,1.9108
-47.3754,-4.051,-0.7568,-31.7592,9.5274,-1.7974,1.8361,-5.5292,26.7012,-3.4702,2.231,4.8125
1.407,1.5439,-2.1028,10.1392,4.7588,2.2713,3.2365,13.7893,24.1272,-1.4576,-0.1236,0.1668
1.9831,4.5191,-5.6312,29.8588,-4.3354,-0.0248,-0.7428,45.497,-12.3808,-3.7791,-0.0997,0.1851
45.9707,5.1744,-0.6916,-75.9695,5.0431,0.6068,-2.1178,18.6956,5.7921,13.9112,-0.7064,2.4753
-15.3513,12.2226,1.3517,46.9143,-14.441,-0.7565,-0.6345,-1.0427,-2.976,-2.4933,-0.328,-0.1804
26.4603,25.5227,30.9269,-1.4119,0.6933,4.6621,1.4363,4.3405,-1.7282,24.513,28.039,28.7449
-43.1222,-0.6122,-30.5099,-2.1033,-2.3476,8.4258,2.2044,2.323,0.6482,-39.8494,-2.6202,-28.1135
16.4039,-23.9764,37.3114,-1.342,-15.5899,64.4784,6.5852,14.1609,-8.2198,16.4083,-16.3196,16.5936
-8.2181,27.1017,-3.5965,49.7006,12.4164,3.9381,-4.7126,10.7986,-1.242,2.4738,22.1518,31.7526
-27.9263,-5.3615,8.0279,-12.1212,14.2916,23.2126,2.3648,-2.9909,0.8572,-13.7139,-8.2999,3.9952
41.3173,-32.3655,-3.5029,-30.3057,16.8486,4.1961,2.3566,-3.1336,0.6283,24.1708,-19.0521,11.4156
0.5458,18.7032,-49.3381,11.3105,-3.2618,-5.3921,-5.1584,-16.3615,9.4732,-32.3947,26.2536,1.9735
4.3107,9.4945,70.8543,22.2367,-16.3656,4.2634,1.6248,-34.6951,89.0521,35.5224,-11.7813,-5.4112
0.0653,4.123,-63.9281,-41.8618,-18.8264,-2.42,3.5329,-1.0281,38.2042,-13.5147,-1.4272,1.0178
-46.4987,2.7332,10.3993,14.3812,-10.9585,1.3442,6.499,-13.5425,94.533,-4.706,13.8289,-0.68
23.8912,10.7091,4.9091,4.2336,12.2318,-3.0998,4.3456,-15.4374,64.1708,21.714,-27.4296,0.1543
38.4353,-33.4558,31.5855,19.0969,25.2998,0.6385,-19.5532,-2.6574,-19.9861,-15.4021,19.7387,1.2077
24.5941,23.2795,32.1975,2.7111,2.3575,2.4267,-2.6414,4.3208,-1.1244,25.3771,32.6403,24.7336
-42.1604,-0.2374,-31.2581,3.4806,0.2021,4.4433,-3.166,1.3495,2.2847,-60.309,1.954,-17.5194
17.8536,-22.0249,42.8398,3.3793,1.0004,8.0276,-3.0999,8.165,-3.7157,37.6792,-53.6194,39.9014
2.5232,32.2927,-6.4007,4.9389,-21.159,96.4276,1.1808,21.7053,-6.8551,-23.5424,30.3311,-83.3557
2.2449,-3.269,4.2033,3.0976,-33.531,100.0,-1.5568,7.0208,0.1577,7.2499,28.5818,46.298
-3.1726,-32.4463,-7.9393,-0.6445,19.963,-66.1928,-1.7109,-6.4278,3.6792,1.1469,-4.5222,2.3547
0.0882,13.2723,-25.4573,-2.8204,-21.4712,65.6404,4.9736,-17.2365,9.9078,-27.5247,-26.3282,-1.4106
-17.5067,10.7415,47.7285,-2.3742,-11.1087,30.3538,1.6948,-16.1495,11.7218,16.1397,-6.1484,3.3808
-21.1922,3.272,-60.906,-0.1401,-9.8878,35.5015,6.8329,-10.2744,13.6947,-4.8266,41.4918,-1.6782
-16.4366,-15.1706,58.957,0.5138,-0.0449,10.4167,3.6656,22.3311,-32.1014,-1.1966,-4.9869,2.6711
-14.3766,43.7089,-32.0372,0.6559,3.8837,-0.361,-26.5934,39.8024,-35.6958,0.1344,-21.4427,-1.7193
-20.163,-15.6081,37.2228,0.2427,3.1024,-3.0352,20.4186,31.081,-73.9412,5.9549,21.155,1.358
15.5118,-29.5007,-56.9203,0.2819,-2.3048,3.1375,-22.2665,-15.0297,7.8851,6.836,3.77,3.0835
15.124,1.7978,68.0956,-0.1118,1.6042,-2.0372,-1.7909,-4.6729,14.4457,-11.641,-33.7919,-2.348
-14.5919,48.8944,-25.6711,0.3506,-1.1183,1.0535,31.3942,13.5347,-6.1149,3.2568,10.3788,0.8211
24.5941,23.2795,32.1975,2.7111,2.3575,2.4267,-2.6414,4.3208,-1.1244,25.3771,32.6403,24.7336
-42.1604,-0.2374,-31.2581,3.4806,0.2021,4.4433,-3.166,1.3495,2.2847,-60.309,1.954,-17.5194
17.8536,-22.0249,42.8398,3.3793,1.0004,8.0276,-3.0999,8.165,-3.7157,37.6792,-53.6194,39.9014
2.5232,32.2927,-6.4007,4.9389,-21.159,96.4276,1.1808,21.7053,-6.8551,-23.5424,30.3311,-83.3557
2.2449,-3.269,4.2033,3.0976,-33.531,100.0,-1.5568,7.0208,0.1577,7.2499,28.5818,46.298
-3.1726,-32.4463,-7.9393,-0.6445,19.963,-66.1928,-1.7109,-6.4278,3.6792,1.1469,-4.5222,2.3547
0.112,13.2773,-25.4702,-2.8203,-21.4702,65.6373,4.9756,-17.2361,9.907,-27.5232,-26.3297,-1.4105
-17.8539,10.7891,47.6921,-2.3762,-11.2075,30.6663,1.6732,-16.1489,11.7308,16.1697,-6.139,3.3803
-22.5051,3.4398,-61.0707,-0.1425,-10.5923,37.3758,6.376,-7.8927,7.3553,-4.7737,41.5218,-1.6664
-4.0264,-15.999,59.5869,0.6575,-4.6952,23.9045,9.4262,11.463,-10.7813,-3.9245,-5.161,2.533
-1.2796,34.9589,-2.9129,0.8367,6.3249,-10.4387,-30.5111,13.3958,31.9034,8.3046,-22.933,-2.6577
-20.5708,3.5956,-20.2736,0.7141,3.3196,3.6376,32.5355,5.0473,36.0819,-2.8309,23.351,0.3432
8.4271,-29.8801,46.7785,0.5279,2.891,-0.5546,16.8711,1.0817,-0.776,9.3032,-0.9236,-0.9068
9.2385,18.383,3.3934,0.1867,-0.2854,-0.4506,-20.4922,-14.8393,-3.9677,4.4874,-6.3881,2.1262
24.5941,23.2795,32.1975,2.7111,2.3575,2.4267,-2.6414,4.3208,-1.1244,25.3771,32.6403,24.7336
-42.1604,-0.2374,-31.2581,3.4806,0.2021,4.4433,-3.166,1.3495,2.2847,-60.309,1.954,-17.5194
17.8536,-22.0249,42.8398,3.3793,1.0004,8.0276,-3.0999,8.165,-3.7157,37.6792,-53.6194,39.9014
2.5214,32.2866,-6.4029,4.9413,-21.1631,96.4323,1.1758,21.8539,-7.164,-23.5451,30.3266,-83.3518
-56.2708,2.6664,-2.8242,2.7536,-32.0017,100.0,-5.1271,6.4501,0.3094,10.1247,30.1027,45.3626
37.174,-38.2609,1.2338,-1.6687,-24.6313,38.0476,3.6489,-6.695,3.8337,-3.534,-6.971,3.9306
12.6984,24.2687,-58.0463,-2.22,-29.0447,93.5893,2.3174,-17.5836,10.0053,10.951,-39.7277,2.3289
-28.4771,-19.9921,89.1304,-0.8703,12.0379,-11.4417,0.5335,-12.2064,10.863,3.299,7.9178,-1.2929
44.1473,1.1276,-93.0436,0.3464,9.5392,-44.2513,9.0615,-7.7068,5.1079,15.725,19.3907,-0.9323
-18.0272,-1.8374,55.4758,0.2765,16.0073,-56.2552,-10.013,4.5265,35.2676,-1.2157,-22.0479,-0.4402
-64.9736,32.571,-49.0242,0.0157,-1.408,38.8499,21.2752,10.0098,37.9986,-4.0762,13.144,1.2831
-16.8398,0.7066,-18.1641,0.0462,-27.4041,50.2368,8.75,-0.6775,22.1695,-3.4248,-5.6646,-0.4131
35.0156,-16.8765,35.9104,0.1983,1.171,7.2629,-27.9805,-11.5855,2.4975,1.1657,-13.2901,-0.6169
84.0426,-16.2068,43.6785,0.6817,-28.4466,61.1051,26.4585,-14.1265,-31.5209,2.716,-4.5774,-0.3053
-7.4901,27.0433,33.9986,2.9003,2.5956,3.4977,-2.72,5.6354,-2.0974,17.46,29.3568,17.509
39.7425,-14.3835,-39.4197,-4.7741,-1.2489,7.7284,4.6196,6.1528,-3.8783,-31.1123,-14.5645,7.958
-52.3512,-9.3902,-5.6991,9.3401,3.7855,4.1397,-8.8397,7.8441,-1.755,34.9417,7.6752,-45.3252
0.4267,14.6678,5.1957,-9.8612,-9.6779,37.8666,7.1062,10.9256,-4.6166,-27.7216,-6.6486,42.3922
78.338,8.9541,12.0741,10.0283,11.6426,11.8046,9.8575,1.5892,-1.8399,4.1234,-4.1055,38.3507
4.2809,-15.1144,6.1518,16.033,18.4353,-9.5239,4.7043,-5.8246,1.215,17.7824,0.7091,27.4045
-57.0537,-11.5056,-0.4132,-4.9132,4.3951,-20.2237,-4.7266,-15.238,8.9762,11.5383,-12.7492,-5.8691
-32.028,6.9884,7.0216,10.5802,-27.2857,10.735,4.2743,-11.6668,11.8378,-11.5355,12.113,-11.4685
16.1315,0.2682,5.226,3.1059,-8.8355,-6.724,0.6564,-8.9983,8.7367,8.279,-15.6682,-0.3359
52.1471,-22.3214,-3.741,-0.443,8.0521,2.4947,1.2546,-5.6476,5.889,-4.118,-8.0939,4.3212
11.8681,21.9047,-5.9638,-1.7131,22.647,-0.5817,-5.5733,-5.5047,22.341,6.9989,1.0773,-2.0027
-61.9567,28.7696,0.7564,0.2153,4.9212,0.1969,-7.6942,27.023,2.4333,-6.0078,12.0732,1.2314
-8.6998,-4.4945,0.0983,-0.2609,-14.3541,-0.459,-1.0585,7.6471,65.8585,-10.5952,0.9349,1.1449
-7.4901,27.0433,33.9986,2.9003,2.5956,3.4977,-2.72,5.6354,-2.0974,17.46,29.3568,17.509
39.7425,-14.3835,-39.4197,-4.7741,-1.2489,7.7284,4.6196,6.1528,-3.8783,-31.1123,-14.5645,7.958
-42.9075,-7.9568,-7.5135,9.2014,3.2245,4.862,-8.7414,7.8672,-2.0198,34.8962,7.5798,-45.4637
-20.4461,30.7631,-37.2083,-5.3589,-3.4436,14.5395,5.933,9.9943,-4.487,-26.2354,-7.6971,47.1565
51.2383,-7.3003,10.8384,-3.3413,19.7808,-24.5595,10.725,0.9343,-1.5507,-11.8615,0.1404,30.3576
20.5835,-20.7288,-5.1349,6.4072,-3.8318,71.2391,4.8468,-4.4446,0.9906,43.5591,-0.7274,3.7023
-36.9635,17.7412,-3.357,-2.587,0.5804,8.3859,-1.9633,-14.3,8.1992,-19.4541,16.589,-31.6308
-36.4266,6.8757,3.6895,5.0488,-7.5625,-29.6417,-0.1049,-16.95,13.6852,6.3758,-33.1913,48.9835
28.3074,-17.0733,-8.2637,1.3677,-6.9153,-24.1072,1.4853,-7.2938,6.5888,40.4051,27.0385,-11.2657
41.5929,11.325,-27.2558,1.4196,-18.5828,57.9653,4.9718,-6.0647,3.43,-39.5033,-10.0085,20.0604
-33.1321,18.4325,-5.5736,-1.3476,20.4216,13.6386,-18.7282,-22.0615,76.845,34.8927,-11.5487,-45.2768
-23.2036,-19.6367,1.5708,-3.7614,2.1616,22.3902,13.367,26.9787,-16.2548,-26.7631,-14.8979,75.8505
-2.8394,2.4731,-5.2666,-1.5549,-0.1575,-16.1706,4.8523,28.7399,-23.4637,5.3262,28.2602,-100.0
2.8743,5.4921,-6.6429,1.1393,-29.6656,7.1343,-10.5145,1.5306,18.4186,-9.3911,-1.7091,16.8061
1.7682,2.3485,-0.2166,1.6411,-11.167,-2.34,17.8697,-1.6079,-9.0778,-0.127,-4.8065,32.853
3.4562,5.1007,-1.5322,0.7079,6.5591,0.3659,-7.8078,-23.3465,2.79,14.0696,-26.2152,-26.6119
2.7675,4.4998,2.3524,0.5617,26.6665,0.2501,-5.81,-8.7988,-0.2326,-1.5457,10.6782,38.2739
1.4224,-0.451,0.3743,-0.2342,6.3752,-0.6402,1.5483,-0.0754,-0.5326,-6.0436,-17.3569,-22.1617
-0.8475,-1.9898,4.0986,0.0743,-11.9257,0.4993,-7.5529,12.148,1.3622,-2.7546,2.166,-21.6749
-2.2931,-2.93,5.8691,0.5615,-15.5471,-0.2938,-2.4225,13.9881,-1.0364,-0.2984,-0.9605,21.8107
-2.6368,-0.4658,4.7114,0.1666,3.8417,0.1442,-21.5358,7.248,0.7917,1.0486,9.2575,13.3823
-0.456,1.2378,1.5971,0.0522,22.7335,-0.0352,3.9942,-13.4202,-0.9448,0.6544,20.6728,-8.8097
20.4048,7.5542,-1.4625,0.1803,1.9114,0.072,2.7454,-1.4298,-0.376,0.7872,-1.7776,13.2399
-37.1523,-0.7393,-5.583,-2.1435,-20.6063,-0.1126,1.5986,0.9292,0.4051,-1.1343,-5.3909,2.3662
1.1964,0.9701,-1.0581,-0.853,-0.1532,-0.1786,-2.4229,10.5039,-0.262,-0.9056,-0.8762,0.6295
-3.1949,-0.5609,-0.004,-0.2452,18.5513,-0.1066,-2.8949,-11.5408,0.3004,3.1852,0.2574,-0.7213
7.9967,-0.2452,-9.1867,-1.6385,0.5915,0.0239,-2.0568,1.0481,-1.8946,-2.0791,-3.7639,1.8606
-1.3704,-0.4453,0.0292,-0.1362,-18.1233,-0.2757,2.4801,5.0018,4.6603,1.2787,-1.4298,1.0834
-1.9371,0.0524,0.5942,-1.499,0.025,0.1592,3.5058,6.0638,-2.7288,1.6957,-0.9614,0.465
-6.2829,1.7115,-0.494,-1.5638,18.0017,-0.248,1.7458,-16.2568,1.0345,3.5244,-1.2433,-0.5105
8.0922,0.7813,-1.4097,10.8654,-1.2913,0.7763,0.6778,-5.1122,-0.3831,17.6015,14.1164,0.6241
-21.9142,31.75,-10.651,2.2054,0.0571,1.849,-2.1452,-0.0915,2.0794,2.2072,1.1623,-0.3033
53.2474,-10.0436,-7.9556,1.8381,-0.5707,4.9177,-1.7432,1.5138,0.8189,3.5699,11.8232,-24.7218
-6.1135,-13.9488,-18.4108,4.6101,-1.4061,12.2586,-4.081,5.4596,-0.7913,3.1377,4.4074,36.4447
-26.2844,28.0505,14.647,-5.7625,29.4064,-51.704,-0.1359,11.2159,-4.7545,-14.7898,-2.1251,24.7179
17.0587,-3.1252,6.9099,-10.03,16.8353,22.1642,0.1496,-1.556,3.1672,16.6437,-18.8961,51.9251
-28.4017,-16.2512,9.1017,-3.8433,6.3819,20.0134,1.5256,-6.4785,5.5877,-41.3772,-0.7027,4.5112
13.325,14.9107,2.0583,-2.3868,-2.2241,-14.968,4.3836,-11.3203,8.9619,26.0747,-4.5922,-25.8643
42.0417,-12.4939,-4.2459,-2.838,-24.6456,5.8601,11.2728,-9.5161,5.632,-1.783,-16.6915,15.1769
-29.4257,11.9366,8.2625,-13.891,-1.4612,-1.5741,-2.4523,-33.8042,50.0688,10.6532,-18.4369,23.978
-48.1656,-24.8049,13.0399,18.5301,11.8369,1.2587,2.3736,-36.7831,90.3784,-9.4507,-13.7962,34.949
-2.0837,19.2735,-36.4639,12.6378,7.9213,0.402,-4.1406,3.8127,30.0543,-15.6415,18.0676,-29.2689
71.2099,1.7434,2.3233,10.8561,-8.5288,0.0964,-9.6972,43.6552,-65.6394,8.9077,25.4213,-40.3787
-9.6481,20.6941,-3.7613,-11.5532,-11.0255,0.75,23.3214,27.4733,25.2662,37.0422,-13.7173,21.3631
-17.8424,29.3515,-19.6456,1.8467,-2.0848,1.4502,-1.7945,-4.1374,5.5765,1.8421,-2.9059,3.1035
54.9502,6.3432,-20.1503,1.0511,-3.0029,4.2104,-1.0073,-3.5355,5.3695,1.051,-2.7121,3.6761
-7.8057,-18.5611,-13.3402,7.5209,-3.7448,8.1184,-4.6371,-15.427,43.4381,7.5309,-1.008,2.6952
-51.4404,13.2844,24.5007,-6.4167,-20.65,74.7381,19.8968,8.6004,28.5536,-8.0755,-10.4155,36.7765
-23.5286,1.5207,-23.573,6.6642,15.213,21.7528,20.6459,-0.1332,8.0919,1.1293,0.6745,2.6445
30.8256,-2.4106,0.6132,8.7746,16.7229,27.2939,-15.4392,8.7942,-54.4073,1.254,-20.5612,32.5231
74.2527,-3.8312,12.871,1.2758,-3.0954,31.4071,-32.6405,23.8397,-61.1031,-0.7981,9.4233,-29.5731
20.0385,-8.7481,21.589,1.1119,-14.5593,8.3159,-16.2756,23.6116,-33.0565,-6.8118,-4.2964,-4.5533
-37.9501,-11.2558,17.0322,4.205,-10.2339,-62.2454,17.0893,-1.96,62.5421,-2.1564,-10.2919,0.1164
-63.5309,-5.042,-18.0607,-3.8967,-19.7868,19.2136,4.3052,45.8019,-47.6631,0.6295,10.2581,-6.266
-21.6888,-7.6981,0.0642,3.2577,5.329,5.0693,-24.2875,18.5602,-30.0982,0.9386,19.4223,-26.7547
7.835,22.1648,-0.2498,-19.7261,24.6934,2.3014,3.2519,-16.712,11.684,0.7159,-3.5087,13.503
99.1632,-9.402,-8.0143,9.3194,13.9824,-3.1241,48.8112,-22.7984,-5.1479,0.5448,2.8567,-6.1047
9.3368,-6.3403,-1.9836,26.0806,-0.0138,2.7521,-30.6519,-4.8638,1.7783,3.6028,-3.7085,-1.0778
-56.1044,30.2588,3.6802,-2.2339,-14.9892,-2.1527,-25.557,-19.2857,-0.4024,-6.5219,-19.3918,26.0878
-17.4832,19.4507,10.2469,0.8584,-3.016,1.8996,-0.8481,-5.3044,6.5239,0.8544,-4.7653,5.4335
50.8035,2.645,-0.064,-0.674,-3.5625,4.2541,0.6677,-3.6997,4.6391,10.7382,0.0964,11.0413
-14.8234,-17.4135,-20.7612,3.0486,-3.545,10.0487,-2.9393,-1.479,5.6806,6.4089,-11.6028,38.9985
-28.0053,-1.6988,17.3327,-2.1269,-22.0123,65.1688,1.2142,-0.0862,2.4284,-1.2378,1.4177,-0.6332
21.3729,21.3484,-10.7946,-9.4519,35.5422,-58.5042,10.529,-8.4656,10.8647,-13.4806,-5.8202,-0.0822
9.6541,-27.0552,35.3632,38.5164,24.5711,5.0065,7.5606,4.2519,-28.3386,18.4127,-13.3567,19.3138
-33.1168,22.96,-12.1126,-17.7892,24.3148,-7.1205,-10.1537,-18.1483,58.6113,-3.111,-19.9942,27.6363
22.3832,-10.949,8.2978,-24.0102,1.6048,4.7931,-8.4405,-3.1356,-6.2497,-10.2373,-0.5572,-15.6569
-8.7077,4.61,24.5265,0.4195,-12.878,-3.2446,1.6132,21.9673,-24.7386,19.9559,17.9591,-29.8267
1.3105,-12.404,-24.9439,92.7468,-28.6314,3.8019,4.8954,38.9515,-41.5455,5.6237,4.4311,-0.2098
10.4942,11.991,17.5707,-25.7167,-2.2019,-1.4902,15.9327,40.5164,-9.7845,-25.9714,-3.2562,-1.5429
10.371,-17.0266,34.6885,-61.2097,-6.045,1.9881,0.6002,14.8713,-2.9877,-5.8922,8.0524,-2.8162
-13.8384,6.0854,-33.2452,16.3798,-0.4864,-0.0296,-21.2451,-3.0542,-8.5605,31.277,-19.3989,49.3176
-17.4832,19.4507,10.2469,0.8584,-3.016,1.8996,-0.8481,-5.3044,6.5239,0.8544,-4.7653,5.4335
49.3683,2.5441,-5.5399,-1.2311,-3.3136,3.7474,1.2241,-2.9618,3.1326,10.0999,4.7796,-18.0391
-23.9961,-22.7663,2.9208,4.0678,-2.9539,7.6895,-3.886,-2.9568,7.4716,5.8477,-9.0071,-8.4573
6.5658,5.592,-0.2966,-3.6765,-17.9274,52.6433,4.436,-1.5104,3.1379,-31.8579,1.0848,-9.1688
-4.4897,10.6604,-2.618,10.1997,-8.1775,68.6,-2.9864,-10.1955,20.6236,6.7168,4.5308,21.5207
27.4829,-25.631,8.0835,-26.6009,51.461,-43.3717,24.2281,-7.4358,-13.3991,5.6329,13.6233,-49.871
-12.1214,12.1058,29.6742,16.4139,9.7009,39.4116,-2.7055,-11.0939,67.1793,17.4526,-20.776,59.8885
23.1216,-11.9822,20.5477,6.2503,11.2038,-34.1692,-20.5522,52.0963,-79.2444,-9.9686,5.4765,-10.2683
-10.5404,-0.1657,31.3069,-22.6118,-21.8243,10.5334,15.7601,22.1383,-2.4981,-26.3241,6.2244,-31.493
-41.4872,-0.433,6.1147,18.4242,-35.8587,-4.6761,-2.2803,2.8029,15.4236,6.3626,-2.9066,6.8551
19.4954,-3.6227,-5.5323,3.4997,-17.5172,1.0789,-20.9917,-17.0895,17.0214,18.5815,-3.4857,19.3707
42.9563,-13.5471,17.9429,-7.0125,1.5739,-1.5639,-3.7632,2.9317,10.5729,-17.2178,2.371,-6.2002
-16.692,17.9079,-4.3458,1.1407,0.6514,1.7747,-0.912,4.9516,-3.1819,6.1423,-11.7658,23.3874
-18.5164,-19.2407,9.0153,-2.8712,-0.7468,0.2533,2.6689,-0.0176,-0.5505,-6.3732,-11.1937,23.6492
16.3176,3.5962,-4.8966,-4.1044,-0.9409,0.0488,4.636,-0.1922,-0.1918,1.4325,-8.4693,20.2475
3.9113,25.0226,-5.6237,1.7179,0.2082,0.4332,-1.9807,0.2983,0.2675,11.953,-5.387,26.3897
-10.5474,-10.8171,18.5554,3.5551,0.7701,-0.9253,-4.0511,-1.1548,0.0153,-10.1508,-1.8902,19.2629
-13.2674,-1.4756,-17.5078,-0.4578,0.421,-0.8218,0.7173,0.0433,0.0368,-4.2565,-18.0531,26.9453
11.7302,9.1433,7.1684,-1.918,-0.43,-0.1025,2.0474,-0.153,-0.0841,-2.5171,-18.5367,30.614
-4.8918,-7.8334,14.4623,7.3296,11.2143,0.2489,-2.9169,-1.4042,0.0337,3.148,-0.6043,17.0725
-4.0881,5.9764,-10.9682,-16.6264,30.2655,-0.2725,1.2983,-2.4784,0.2877,-0.5747,-3.1017,2.6829
-5.2015,-6.2559,6.1112,-7.3525,11.3227,0.2772,0.9941,-6.0429,-0.2515,-0.4331,-19.8309,50.592
-2.5779,9.845,-4.2904,9.6679,-8.4562,0.2784,-4.272,-7.8063,-0.8002,1.8788,-5.7635,3.9422
-0.5232,-10.7367,9.4207,17.1796,-21.4257,-0.5838,-1.5513,0.6376,0.8938,1.0292,9.5881,-25.1498
25.9102,9.1895,-5.4412,-31.2308,-8.6813,-0.0022,0.0227,-6.8149,-0.8053,-0.3771,-0.4153,-5.8506
-15.9299,12.2309,-17.0391,3.1864,-3.7992,2.4495,-3.1404,-7.4178,9.7849,3.1868,-5.4665,5.854
-1.4104,39.1054,-20.5871,1.4028,-3.5263,6.1213,-1.3166,-5.4293,9.8136,1.3985,-2.4417,3.938
9.705,-1.486,7.0607,-0.0509,-6.9479,17.0737,-0.603,-0.1315,-3.319,2.4124,-7.8532,3.6971
-19.0836,-37.9294,32.0445,-2.3554,35.5781,-71.9285,17.4286,1.7899,-10.1296,-4.2641,0.8022,-7.5314
15.2096,-8.5408,3.7196,-18.829,44.0038,-44.6824,8.4696,-0.9516,-28.4916,20.6228,-2.4438,4.3347
-7.5373,24.7684,-31.8805,26.7427,7.0724,56.6192,-24.9359,8.5853,6.5908,-1.5025,-15.9576,45.2344
9.096,-3.5988,17.5098,5.605,27.3193,-48.7679,-0.6224,3.0593,0.9279,-20.4227,12.1727,-7.3751
-2.982,-19.3605,21.6781,-6.8641,-15.1726,15.3686,18.4634,-2.2341,-2.5614,-0.9371,10.018,-25.2979
-7.1149,5.9358,6.9827,-2.7765,-25.4527,-10.6741,-9.5807,2.8349,2.0282,12.1362,-11.6108,17.5243
25.0424,-1.4275,-7.593,0.5925,-30.1735,4.3422,-2.5287,-4.2293,6.3416,2.8327,5.6287,-37.9939
-18.5029,4.6769,9.6521,-1.9375,-7.5517,-0.5384,10.9148,-5.4034,2.0262,-18.7506,3.5785,-20.3633
-11.7578,-13.1832,16.0566,4.6403,15.127,-0.9261,-13.3167,-11.2526,-2.2308,26.1363,10.2888,-22.701
4.9343,-4.1489,23.9704,-26.0111,32.1822,0.3838,10.5517,-3.5338,1.8203,-5.9102,-2.3886,-7.3901
-15.5531,5.6565,-18.0174,8.4114,-0.0935,7.1894,-12.461,18.8572,-1.6571,-1.0999,-7.5838,17.7895
9.5969,-1.7266,11.3192,3.8848,-2.4644,13.054,-1.3537,2.0947,1.1065,2.7561,5.9524,3.4497
-13.226,16.9017,13.7652,-2.2353,-2.6282,1.7789,2.2596,-2.8756,2.2786,8.2992,-5.5281,7.0961
37.1776,16.8885,-20.6543,-7.8243,-4.9865,5.8662,8.4085,-2.7054,0.9414,-0.2225,0.3165,3.7774
-47.4199,-3.8802,-3.5987,4.7722,-3.3544,2.6112,-5.493,-7.7492,11.7378,9.8367,8.8002,-9.3885
34.3063,-18.8647,10.5717,-1.5867,-7.5603,11.5723,-0.4632,-31.5429,72.7545,1.7016,3.5492,-23.0088
-4.2108,14.9355,-26.8013,2.9503,17.0953,-34.1181,1.4614,-12.6539,45.5015,-5.83,-30.2052,63.1146
1.4589,-14.189,29.3462,-1.1113,44.3495,-58.4911,-0.9668,-0.3007,1.0537,5.4454,4.2097,-26.3311
-6.6748,6.0071,-24.4652,30.4578,12.1858,62.2639,-5.5718,-0.6691,-5.2982,3.8411,0.7264,-2.5502
16.0427,-7.0159,-9.6325,-6.3205,18.2224,7.2561,-6.1023,14.275,-24.4445,2.2284,0.7577,-0.409
5.8057,-7.3821,14.8478,-0.768,9.4312,-26.574,-0.4513,-5.5162,8.6649,0.955,3.7761,-5.8418
6.9608,-10.9964,14.4376,18.3695,-9.605,-36.5778,-1.089,0.2473,-7.5768,0.0411,-3.5436,1.8489
0.4795,-11.4543,14.6171,32.1414,-10.785,-58.2827,-0.9504,-2.8391,-0.0393,-0.365,-3.7905,2.6819
15.8286,-8.1931,21.9938,-27.5529,-9.2316,-13.3913,1.9434,-3.5103,0.1505,-0.6453,-2.314,-11.4071
-6.0978,5.3205,1.0968,-14.6532,0.6542,-25.3285,-4.8397,-3.0991,1.1762,0.445,2.7606,2.9127
-12.4122,-3.6705,9.0011,-11.6837,14.9739,-0.3207,0.6662,0.639,-0.5451,0.4932,-2.222,-11.3109
7.0051,4.2895,-37.2596,24.9885,28.1861,-0.1144,-2.0042,-1.6256,2.2893,0.1395,18.2126,-6.3404
-1.7785,3.6858,9.822,2.683,14.3002,-0.1359,1.3626,1.6475,-2.9041,-0.0127,7.5852,3.4324
-15.3935,-6.1582,17.2748,7.0229,-4.6549,-0.0742,-1.7796,16.0644,-15.2753,0.1121,-6.4725,-5.4501
-15.4073,1.7342,-8.0184,14.0221,-23.1985,0.0775,-0.4105,28.2071,8.7752,0.1879,3.066,-8.8861
-14.5656,-1.5386,4.8697,-9.1752,-16.2578,0.5378,2.6249,37.8652,-4.5087,-0.0112,1.6468,0.2968
-14.546,21.9509,7.8015,-2.7878,-2.5285,1.554,2.8229,-2.6836,1.8521,13.6033,-7.125,10.8931
31.1022,4.904,-5.2514,-10.6641,-7.4307,4.9683,11.8061,-7.8855,5.0803,-14.1758,-1.4347,-31.2328
-21.6073,-18.2729,-4.1145,1.8645,-5.8333,2.7304,-2.1898,-13.8594,19.4206,1.688,-3.1757,19.3488
16.2413,2.0423,-14.0582,2.1231,-3.2992,7.9466,-1.4657,20.2655,-52.9485,8.6506,14.6459,-18.7738
-2.8602,31.1862,-38.3445,2.9948,-24.2414,72.7595,-10.5018,8.1547,17.1413,-1.0376,-12.4594,17.7054
-2.3735,-4.4968,-26.049,-0.4763,11.8405,21.0199,-0.5596,-0.5326,1.7025,-14.5032,-0.3464,-7.2988
-3.3251,-7.8428,6.2655,1.9275,60.8694,-68.2481,-1.2307,-2.4159,0.8797,-6.7335,2.9578,-2.8226
-7.4929,12.3151,4.9384,-1.2587,2.7178,52.7578,0.8902,-2.2288,-1.2272,16.344,19.5512,-3.7118
6.1598,-18.2123,24.3345,7.6304,14.0564,-44.7601,-0.0234,-14.0604,-2.8979,-4.9172,-9.6662,0.3125
-6.1949,26.1453,-15.0971,10.4993,-19.3252,4.4935,11.1252,5.8644,2.4442,-15.769,11.2904,-0.6299
-3.3341,-11.2631,7.8247,-16.4556,-28.0883,-6.1223,-2.2928,28.0106,-1.3024,-14.4012,8.3627,0.4767
0.2227,5.5782,8.0702,5.9191,-13.2626,2.1102,10.4133,26.5516,2.1676,0.4477,5.7419,-1.4803
-17.1318,22.5975,8.394,-0.172,-0.8419,0.973,0.1736,-0.877,1.0493,16.1415,5.1379,-14.417
32.1961,5.4128,-5.4398,-11.2807,-7.7148,5.5345,12.4518,-7.9676,5.2211,-22.0055,2.5207,-26.2544
-18.1478,-17.932,-1.7089,3.3666,-4.8216,2.0561,-3.8301,-12.5937,18.2916,12.9554,4.0296,9.1602
24.9373,-0.0457,-6.7201,-2.1317,-5.9498,11.2745,-0.1429,1.1567,3.2666,-18.1706,9.3395,4.2867
-9.8444,14.6045,-18.5309,-0.7943,-13.3735,43.2409,0.0622,-0.1942,32.741,13.7751,0.1157,7.3624
-10.9765,-19.1772,19.0015,-0.9431,16.7334,1.1186,0.1447,6.4392,-9.6002,-14.4022,0.7741,-7.4508
21.5402,11.2362,-9.4327,-5.2345,30.5667,5.7097,-3.3206,-2.4318,2.375,11.1245,13.4745,-9.4493
-13.4235,-16.1778,9.8506,-1.6104,25.4876,-2.2847,4.2667,-12.5189,-1.3298,15.2832,-11.5822,6.4305
-12.1219,14.7034,-10.5316,11.2255,4.7591,2.2019,4.5928,-13.2633,-0.4125,10.4288,9.4402,-2.2862
1.8672,5.2747,-20.5745,9.8391,-14.0903,-1.7203,-22.0573,6.0891,0.8471,1.6973,7.2238,1.4835
-2.9788,5.4053,5.6726,-18.2539,-30.2956,0.7542,13.0065,30.7687,-0.9482,0.8536,5.4651,-0.4451
1.5696,-0.836,9.5396,-4.1287,-18.7526,0.1629,-18.8122,39.866,0.9956,-4.5913,2.2173,0.1699
2.9149,1.9268,9.1555,-8.1092,16.6821,-0.4146,-2.3403,19.7297,1.9436,-3.9922,-6.3209,13.5118
5.1341,7.0743,-7.3681,-22.5034,17.28,0.9279,10.8541,2.6705,-0.8787,-2.0437,-7.8077,-9.654
-3.5711,1.6591,-0.274,5.4986,-1.3136,-0.7194,0.9012,-14.1173,0.1931,-0.1583,-0.4513,0.3088
-4.2527,-0.3921,1.857,17.61,-22.7669,0.3209,-8.8315,-33.1101,-0.2827,0.6139,9.1848,-0.0532
-16.7626,27.4482,-10.6312,-1.6423,-0.4946,1.3385,1.6215,0.1264,0.146,12.2453,1.8835,6.9147
30.8049,3.8163,5.0944,-11.4251,-6.2567,7.6708,12.9496,-2.9098,0.4213,-7.6915,20.4955,3.672
-3.0713,7.5631,-51.6115,0.9533,-3.1762,2.6096,-1.1628,-5.4395,6.8619,5.0173,10.3144,5.1445
-25.7361,3.391,-7.5118,6.2155,-4.3093,2.5903,-5.1804,-13.1137,-8.0053,8.8152,-28.4996,14.0114
27.4901,0.8591,-7.6517,0.0579,-8.4698,18.3913,1.7603,-13.5295,31.2765,-26.0893,-2.7502,-20.2986
-36.3528,7.9857,-29.2629,-6.5735,13.226,13.8224,1.9564,-0.4686,18.2102,7.8847,2.609,32.939
25.0543,-7.0782,31.1431,-19.0788,41.6015,-31.3323,-4.0329,-21.1149,28.0822,24.6095,-26.9455,24.6926
-18.3119,-5.9114,-37.1015,33.0398,25.6738,-11.8835,-3.1761,13.8881,-12.5025,-17.6485,19.5774,-4.7815
18.7386,-6.6069,18.6664,-6.4627,14.4304,-26.013,19.8083,-4.3675,5.1358,-12.5364,-9.1166,16.4062
0.1423,-5.8854,0.5085,-9.4328,-18.633,12.7491,-6.4128,5.1371,-1.2875,-12.1033,-0.5794,10.6077
17.2536,2.317,-3.3078,6.2458,-33.5496,-6.2339,-1.8649,-1.1644,1.221,2.1217,0.747,-1.3851
-36.1332,5.6315,-5.4919,0.7142,-22.8699,1.3853,3.8636,14.8272,-0.9405,0.2666,-4.1067,1.4591
10.9145,8.1581,-6.4873,-5.9514,-2.5938,-0.2641,0.2971,-4.5005,5.4527,-4.118,-4.0382,1.4458
-1.7164,-2.1736,-13.7151,-9.2318,17.9846,-0.0875,4.3089,-4.1917,2.6748,0.1551,0.7482,-1.8039
-2.8762,-0.1536,7.5661,17.4074,33.4727,0.0537,1.7415,-21.183,-1.5427,1.5371,2.1639,-3.8032
-1.5436,8.6544,-23.1594,1.0038,18.5574,-0.317,-2.7349,-28.4521,1.2517,-5.7258,1.4128,-2.304
1.5317,-0.5367,6.6617,-2.0458,-3.1532,0.1417,-2.3442,-7.9961,-0.2656,-3.8672,-3.1131,0.4854
-0.808,1.0082,-1.5008,3.9899,-21.4646,-0.1253,-0.6586,15.1489,0.0507,0.9376,-0.3787,0.0225
-2.7974,-0.8571,1.0139,10.1193,-25.3861,0.0155,-2.8523,0.0022,0.0576,3.1871,1.4186,-1.9175
-3.0217,-2.3375,2.7447,-11.8422,12.6897,0.4928,1.3177,9.4926,-11.7494,4.1918,0.0776,0.4049
-9.3268,0.4964,-12.4402,9.3723,0.0874,0.4626,-1.4654,6.1003,3.3424,2.7757,-1.5604,0.8548
6.2793,-0.9068,13.0633,-15.5964,-2.0838,-0.3739,1.5337,0.2062,-0.6251,-1.6809,-1.7646,1.5542
-19.3863,-3.1331,-7.6159,-8.1173,2.4902,-0.2815,3.2247,-4.5285,0.0196,1.5839,-1.7733,0.345
7.1304,-4.2677,17.287,-11.3924,1.1018,0.2188,2.6022,-0.4003,-0.1021,-3.2185,-0.8369,0.5158
15.4285,-0.4357,9.0893,13.663,-0.9356,-0.8858,1.0178,2.795,0.125,-0.1007,-1.8252,-0.0494
-20.7751,-2.3011,10.7948,1.2039,-3.156,0.8212,0.1208,-3.5442,-0.0293,0.2135,-2.5705,0.5068
-3.1156,3.2393,-2.8646,3.6276,5.0599,-0.359,1.6878,-0.8694,-0.5066,-3.238,5.0794,0.5972
-3.3042,6.5002,-14.1018,-1.7217,-1.4507,-2.7927,0.7988,4.273,2.5463,-1.0102,-2.6362,1.6037
-4.3913,4.9432,-15.0879,-1.2029,0.4706,0.1075,-0.032,-2.9755,-2.2732,0.5893,-2.3259,1.4474
-2.0979,-3.919,19.6275,1.0514,-0.8026,4.7683,-0.292,-2.0506,1.553,1.0486,-3.0267,1.9674
0.6877,-11.9932,33.1743,0.5697,-0.7925,-2.9064,-0.3536,0.7102,-0.874,-0.6272,-2.3571,1.646
0.9149,-11.0491,7.5016,9.828,-0.8064,4.2338,-0.1121,0.4732,0.4866,-0.8598,-0.1139,-0.5911
1.2275,0.3832,-0.294,-6.2935,3.0755,-8.0379,0.049,4.9076,-0.4391,0.455,-7.0575,16.1448
-0.6535,-1.2254,0.1664,0.7251,0.6357,3.2945,-0.0726,4.0039,0.0122,0.6948,-1.7452,1.5215
-1.4728,-7.8307,13.8687,-1.4823,0.8156,-0.8588,-0.1093,4.0882,0.0273,0.8622,-3.5791,3.531
-17.484,-29.6012,2.4247,-3.5937,-2.7661,2.173,3.5794,-2.5216,1.7192,10.6912,0.2167,-12.6823
33.6263,-18.2948,-0.1271,-8.7901,-6.9215,7.1083,10.3411,-6.7464,5.773,10.2156,-0.418,25.9102
-17.8536,12.8901,4.927,1.957,-6.0718,4.4844,-2.4945,-13.9623,20.5788,-8.0329,4.6634,5.901
8.8914,61.2512,11.7104,7.8371,-1.8779,14.2897,-13.0954,21.495,-28.3862,9.1562,47.8373,-2.3265
17.2065,25.8425,6.4555,10.7146,-2.7965,37.2589,-0.126,20.6001,-38.8064,-16.0224,10.026,-19.784
-20.8661,4.2362,17.9335,-7.1816,24.3748,11.1512,8.4442,-16.4123,15.4537,31.3994,-32.4768,-10.7165
-20.0618,-10.5536,13.8689,-9.3305,30.9411,-6.34,-9.271,-8.4937,-6.3593,-21.737,-9.8651,-21.6895
10.6147,-25.8078,-0.185,2.4548,7.4112,4.5983,-5.5991,10.6968,2.0937,-3.7706,8.4726,-7.1329
-21.8304,-27.833,-35.5557,-0.1721,-8.4741,-2.909,0.5004,14.0002,-0.5362,35.2039,2.578,1.7433
22.9949,-39.6754,-36.8357,-2.2774,-31.6153,1.2328,10.9829,24.52,0.6811,-32.9229,8.7755,-1.4847
3.3841,-30.0519,-4.8972,-3.2279,-19.0228,0.1159,-8.3943,12.8413,-0.9378,22.084,7.114,0.0507
-19.2361,-3.7022,-14.8008,-0.4444,-1.3949,0.0401,-5.4504,-5.9586,0.8349,-8.75,-7.8038,2.5985
-11.1471,-19.2126,-13.8164,-3.8422,-2.6667,1.7918,3.8369,-2.5084,1.4987,8.9147,1.9595,-16.7953
-1.1237,-33.5837,4.1374,-6.9447,-6.1275,3.0781,8.2186,-8.7217,7.4032,13.4247,0.0169,19.7014
-4.323,7.5351,-11.5598,1.0526,-5.5025,4.1462,0.3908,-10.0763,7.0378,-9.8409,2.0378,-15.9685
32.5254,61.9739,3.2748,6.4635,-0.2449,10.8612,-7.6316,0.2321,23.8802,16.2719,36.3305,5.0747
-9.8119,14.4406,69.8432,12.3146,-22.7785,70.1633,-6.0242,-8.871,33.8759,22.842,11.7307,-1.6192
-1.8548,14.9855,3.0897,-0.9933,-4.3009,67.5346,13.4216,-7.8462,3.2637,13.4776,-33.7491,0.6753
-8.2704,2.3377,-16.5757,-13.3397,34.9051,18.2264,-0.1365,-5.5252,-3.1681,-24.4425,-11.9443,-0.5885
14.806,-33.4102,32.7886,-4.5416,37.5656,-29.3991,1.551,14.4114,2.4164,11.7055,10.9671,2.7797
-4.0095,-47.889,13.4963,-12.1642,5.5377,-5.5534,-6.0472,-3.4593,-1.5244,-9.0052,1.0655,-2.6359
-24.8254,-54.733,-7.019,16.6903,-10.9989,-25.9204,-1.1701,7.4046,0.5544,15.6074,-3.0586,-0.8861
25.0634,-36.4609,-1.8411,11.3945,-44.075,13.1117,-0.8105,11.3374,4.8212,-20.3109,9.9753,0.2885
14.2935,6.4872,-17.1359,-9.4995,8.6312,-0.0477,-4.8521,32.1249,-11.0713,23.9204,-6.8549,0.66
-17.0731,24.4847,-0.8913,-18.5954,14.9952,-0.9439,-1.214,-20.2471,43.5026,1.224,3.3189,-4.2324
-35.7878,56.6362,-25.5231,44.501,-6.3636,-1.2454,1.0644,-29.9019,0.3699,-1.5364,-4.6567,0.7052
1.5493,-0.071,-0.0578,-28.4847,0.0903,-0.8161,1.2303,-0.3458,0.3836,-1.7924,-1.7208,1.5526
4.2205,-11.5056,11.3798,0.4654,-0.9677,0.4064,-6.9267,-7.752,8.2668,3.887,-7.312,4.1882
1.3898,-1.2714,1.9657,14.242,2.2544,-0.6834,-2.7732,-30.0204,10.4524,-12.8096,4.3557,16.6055
5.6985,-0.7706,0.678,9.7952,-2.0842,0.7896,-2.8854,-11.4177,-22.1175,-9.951,4.8033,-0.0795
8.3561,1.552,0.8236,-18.0634,-3.3018,-0.3499,0.585,-3.5318,-7.3618,7.9513,-11.1279,-2.1484
-5.8906,-11.5454,-17.2125,20.8562,-3.4865,0.0289,1.5609,19.6472,-0.4714,-1.7257,-6.6122,17.4262
4.9819,-14.1475,8.8993,-11.1837,3.4173,-0.2385,-2.5691,-22.9406,1.1033,-3.2923,2.6838,1.6395
-0.9891,28.4331,8.4274,-4.5315,3.6943,-0.1599,-0.6133,0.6081,1.8378,-1.1233,1.6623,2.8702
0.1527,52.0269,-25.3186,-0.1782,5.1195,0.0532,0.3943,-3.0451,-19.2516,1.2066,-10.5908,-2.6354
24.2393,-0.2026,37.3604,-11.5968,-7.7952,-0.3479,2.9525,-1.2399,-9.7912,1.1477,-3.0833,8.2645
-2.3304,-21.0722,34.2332,-13.6814,1.8148,0.3983,-0.8396,-0.255,-20.684,0.8084,-2.7833,-26.3134
-0.5797,-41.5907,20.687,-33.8282,-1.5659,-0.2425,1.0831,-0.9464,-1.1036,0.7824,-4.2787,-7.7709
7.2319,18.005,-33.5936,-6.3026,10.7906,0.1412,1.733,-1.1012,0.0597,-0.203,-5.2091,-2.9183
13.5009,17.0367,-1.0197,6.4983,-5.9457,0.0506,1.3881,-1.1865,3.3205,-0.642,5.0896,-16.3361
9.5084,-18.4944,17.088,-21.3483,3.1489,0.1604,1.1646,-0.2795,-18.8672,-0.5356,-7.1104,0.2865
-1.5108,1.1247,-2.2652,2.9847,1.3139,-0.3904,-29.3501,4.6983,1.3557,-0.1093,18.5209,-5.8169
1.8674,1.3847,-3.2141,-11.2709,-1.4408,0.1845,42.8073,5.0833,-3.286,-0.247,-3.9388,10.2694
-7.0168,-22.8789,-18.7829,3.5958,2.0334,-0.0584,-27.8354,-13.16,-15.3546,0.4219,-7.4798,-2.1787
1.2804,-0.3566,0.1731,-5.0692,-3.2125,-0.3577,31.6843,1.2627,7.884,0.6531,-11.0012,5.6358
-1.3611,2.9493,-2.5921,37.9392,-0.3564,0.2542,-39.403,20.9006,-2.6565,-0.1869,12.1158,0.764
7.2217,2.0504,0.8925,-9.5996,1.4209,0.2381,28.6187,-4.8219,1.1092,0.5848,3.0006,-2.0821
-9.243,28.3189,9.0732,-4.1566,2.2311,2.8532,25.2753,-16.1731,24.176,12.7083,9.4012,-45.5179
-7.2638,10.6898,-5.8156,-5.3932,-0.5062,8.0264,-4.7155,9.9456,-2.9588,-4.5994,-0.7125,36.2496
37.8561,-15.5687,-13.4623,-1.7683,2.0449,3.8397,-35.3686,-8.2743,-21.3428,-15.1864,17.2295,-22.7195
-15.5347,-53.5466,-15.1405,-2.6187,-0.425,0.6269,-9.1102,-15.2851,-17.4825,-9.9479,0.2345,-11.1911
-36.2277,-6.5222,-66.4552,-2.1637,-7.8765,40.7035,62.5705,32.0579,-8.042,-5.5154,1.7686,3.1839
46.2034,39.094,56.2001,28.3901,11.7889,9.9111,10.5267,8.3698,-10.0005,-4.8309,25.4912,-3.5228
32.5595,50.5065,-23.6622,-7.7645,-17.8118,95.5044,10.9701,4.6895,-8.0372,4.559,-25.5389,5.912
-1.4019,33.2151,1.4642,-7.2604,-0.7816,25.9916,-5.5806,5.654,6.4795,-2.2117,17.2431,0.1442
-19.7174,17.729,-14.1298,-1.7104,-2.7049,-25.0581,3.4518,3.2302,-8.2112,-3.7943,-8.5719,-5.5931
-21.9859,0.0164,-29.9834,0.5325,-22.1877,9.7631,2.6598,11.7743,-4.7034,-2.2192,8.0091,-7.4337
2.4956,-42.2498,29.4409,9.2926,-9.6609,-1.1777,-14.4496,-6.337,-1.5409,-0.8904,-7.1025,2.6981
-6.9487,-57.577,13.112,18.7603,1.9752,-1.6071,6.0473,-12.9543,8.2611,-0.2909,-4.8834,-0.6754
-21.2171,-44.3773,-52.9404,-16.7992,23.0115,0.4926,22.3002,-25.5532,-3.4934,-1.1067,0.0892,-3.0102
67.5566,-44.3292,10.2485,5.8905,13.8997,-0.24,16.6505,12.7017,0.6387,-2.9321,-2.1423,0.3045
-16.9521,7.6908,-0.1778,-13.9857,-1.9128,0.8602,-40.1388,21.1364,1.9862,5.4318,0.6863,-1.5028
-13.8253,42.4297,5.0599,5.2695,-18.3328,-0.5264,33.0245,13.0792,-0.8305,-1.9637,1.8645,-1.6799
9.9872,44.5286,53.6481,10.4634,-18.1291,2.4605,-42.7623,46.1339,21.984,2.5533,0.0836,-0.3446
-5.8744,21.5087,-56.7643,10.7668,14.7921,0.59,-15.7349,-7.1971,-8.7247,3.5671,-0.1833,-0.117
-10.5468,8.8388,-4.7307,16.8362,4.4868,0.2564,7.0053,-17.3599,-2.7123,2.0356,-0.6516,-0.2984
-5.9328,12.8258,30.356,-0.0143,-15.1852,-0.8732,8.9594,-7.9879,0.2149,-8.5273,-3.4472,2.4858
-9.6483,-17.1864,33.1929,-13.7602,0.8061,0.2084,-4.2298,-7.063,2.7754,2.2943,2.8336,-1.2885
0.4374,-5.728,-23.799,5.8106,6.1551,-0.0308,-11.0462,-23.0875,-4.0338,3.9504,-1.6732,-0.1023
16.3476,5.2382,21.1306,-15.4282,-3.921,0.4333,-8.7485,20.1072,5.9447,2.7793,3.5671,12.0998
-10.4295,-4.4566,-9.324,-17.1059,7.3014,-0.2996,14.0398,4.0801,0.8729,1.0151,-0.628,-6.7758
-2.7055,0.8885,-3.141,-1.2083,-5.7866,-0.0505,-14.7401,0.0572,8.7384,-0.0401,-10.9015,-0.3909
7.4489,11.3428,-20.4015,-7.5811,4.5097,0.3611,25.4808,-0.5469,1.039,2.9585,7.8199,-12.5543
-1.6598,-1.1723,0.0038,0.9562,-5.3218,-0.1976,-12.8943,6.0725,-4.4181,2.4723,-1.6077,0.7606
-5.3035,29.6352,7.3841,-6.2368,1.629,4.0856,25.8391,-4.3565,-14.963,12.6428,-0.4839,-10.4658
21.9357,7.5493,-9.3261,-4.8617,0.086,7.3824,-12.1029,5.0398,-11.6414,-6.3209,20.0585,31.4008
-12.1384,-9.8685,-29.8713,-0.6528,-0.6394,4.1701,-2.5975,3.4903,-12.9796,-9.0245,-0.3499,1.4972
10.9547,-32.4856,15.483,-2.3827,-0.8876,4.0714,11.768,-29.323,28.6701,9.0633,-6.6661,20.8087
-40.5871,-9.9197,-44.7185,3.2401,3.5909,3.2482,3.9958,4.4758,-26.0292,3.7955,2.3415,-47.2055
33.4857,25.9956,0.7412,-0.5245,-19.0262,61.1013,-36.8403,10.6897,-6.1548,-4.1611,5.1504,6.7695
-5.3768,45.2291,20.8694,6.3049,34.8902,-41.2551,1.8624,3.2105,3.4346,9.2067,-10.726,41.1644
15.0935,14.0097,6.1152,-9.2869,30.5675,-46.0275,4.3098,4.9296,8.2376,19.0407,6.7657,36.8366
7.3031,-23.2221,51.9515,0.6197,-2.2562,-12.527,-0.4993,-25.513,6.5721,-9.293,2.8793,-26.2878
-58.9262,-4.6495,-32.5742,14.4143,-22.7924,4.9085,12.1463,16.1696,-4.9497,-3.1954,13.0436,-30.812
17.3636,-45.8205,10.9968,4.5295,-23.0648,21.6579,-16.754,11.8856,-5.201,9.1265,3.3989,-0.6656
56.2415,-36.4547,-26.9634,-9.4149,4.4159,-4.5479,7.1063,-5.5984,-13.3983,-19.3615,1.6766,-8.6836
-17.7066,-14.4134,-41.6394,11.5463,25.2985,0.0015,-10.9097,-10.789,-11.8699,26.1676,-8.0045,3.9654
-17.0525,3.2464,-14.0859,12.3896,9.5712,1.0468,0.1192,2.4987,0.5644,-24.64,-1.1352,-0.4152
27.9835,42.4504,0.3062,11.7477,-7.0176,-1.1501,-2.8854,3.4661,9.0741,31.1523,-8.8681,20.2682
-3.195,53.9671,17.7504,2.3798,-18.5882,-0.5319,4.1798,23.9217,-1.343,-36.3169,-6.3778,6.1737
-0.5394,0.1751,8.1628,-12.1163,2.6467,0.6625,0.3562,9.2994,-2.8462,29.9382,-2.918,10.7571
-29.1121,-20.4943,29.074,-1.5919,9.7259,0.0095,-1.4321,-26.6884,-1.6209,-24.3138,0.5328,5.2595
11.4149,-24.4344,-11.0584,9.4028,-8.7492,-0.3227,3.6095,-23.0621,-10.1058,22.6743,-0.0189,-17.8777
-2.0794,-27.3323,-26.1731,7.506,2.2016,0.0787,-2.0097,1.5213,4.8245,-28.9321,0.5852,1.4669
-0.9285,29.5551,5.6899,-4.3009,2.9383,4.5064,18.7789,13.9328,-20.4216,13.1406,10.933,-23.9502
-0.2858,-5.0142,43.3664,-5.5407,-0.4827,5.0792,-11.2972,-16.9612,-10.34,-7.6234,0.0199,10.1026
5.2647,-13.9934,15.2624,-2.8691,1.4134,4.2641,-13.8424,-14.698,-5.0779,-8.834,0.6837,5.3034
-7.2179,10.1504,-18.7002,-1.1084,2.5861,4.2642,36.8972,2.4242,-20.0034,12.5703,-5.8105,-0.1774
1.5316,-34.1773,-19.0415,1.4577,-2.1714,3.7984,-21.0267,-5.4905,-2.6439,1.5936,-0.1635,-36.043
-7.8674,-47.2842,36.7114,-8.6907,-7.6381,14.9381,30.3848,8.8655,16.5389,-8.0224,2.8051,-14.8758
14.2861,-6.603,-23.3621,28.1198,22.9485,-62.3062,-24.9397,-15.7658,22.4924,-1.8996,4.8557,9.9221
2.0313,28.5804,2.9276,-12.2927,5.7027,25.1518,18.0487,6.3099,-18.8809,-8.1172,19.9081,-9.1757
-5.2614,47.0639,15.1759,5.4737,8.9223,10.4148,-5.4066,3.7313,-10.8995,-14.3068,4.127,3.7425
21.2745,35.3197,20.8403,20.7082,-13.257,16.1479,-5.7183,2.0926,11.5458,2.6616,-3.3846,-0.6916
-3.378,31.5095,-15.4174,-4.245,-9.0267,-9.1568,-6.8241,7.9533,-11.9961,11.5956,-2.4316,-0.8218
-3.487,-0.3885,15.2401,0.1322,4.5314,4.3999,4.0862,-16.9083,7.7655,-3.5047,0.615,-5.6883
-19.5067,-15.6351,-9.723,-16.4171,12.162,-1.865,4.193,-11.8595,-3.6014,-4.3366,6.4318,-0.3161
3.724,-0.4641,-1.0946,7.8957,-10.9873,0.1531,-12.3109,8.1488,4.4983,-0.5381,-15.367,1.0489
0.4702,29.9564,5.204,-5.6052,2.5733,5.1615,20.2925,14.0745,-20.7171,11.6147,10.79,-23.667
-1.1222,-5.2681,42.2248,-3.8915,0.0382,4.7142,-17.7213,-16.6113,7.1946,8.0647,-2.0724,15.801
24.1705,-14.5038,11.6104,-2.8021,1.8678,3.4682,-25.6649,-12.5416,-5.9648,-16.524,3.8454,-30.2618
-0.2624,1.9815,5.152,0.2569,1.9804,4.8052,30.4442,-16.6606,21.7033,6.7457,-3.6842,21.6602
-27.3799,-7.6453,-38.3814,0.2278,-4.3222,8.6832,8.9577,21.8075,-4.4952,-4.4139,6.0583,2.3957
12.2814,-35.3645,25.7932,11.5241,14.7081,-21.5822,-35.7137,-10.627,-18.3452,2.6093,26.5625,-36.5948
15.1377,17.6398,-10.6862,-6.127,3.4005,30.5931,18.9565,15.2361,-17.9243,-1.5908,6.6484,-5.1974
-15.1902,43.0963,14.1494,21.7842,22.1279,-13.6883,3.0915,-2.2593,-0.8711,-3.2432,-3.29,2.0976
-11.0791,1.9366,35.2174,2.3093,-3.2828,5.9941,13.8447,-3.763,-5.0554,-5.162,-2.1408,7.1289
2.1518,-10.3895,40.3395,1.321,-18.5378,-1.8038,-15.108,-3.5406,-2.4814,-3.9504,-3.5341,-3.9127
-14.2365,-7.1431,-20.629,6.4865,-7.2406,1.1102,-14.9662,-6.4395,-17.0689,-1.5293,-3.2906,0.774
6.1722,-17.2222,-22.6634,2.8095,1.4038,0.0097,5.2341,-1.8854,4.889,-0.2908,1.7004,-0.5031
4.9586,-17.5056,8.5643,-2.0247,6.6672,-0.1391,3.2361,-0.7562,4.2547,0.3371,-3.5451,-0.0725
-0.0723,13.5555,-6.5578,2.4613,-0.1581,0.0995,0.1156,1.3421,-2.0235,0.463,-8.49,8.4387
11.0533,37.0892,-9.7151,31.3983,-1.6308,-0.0364,-4.467,1.8253,1.2535,-0.1311,18.0571,6.682
-24.1952,10.8293,-10.9742,-31.5722,0.8863,0.0681,-5.5307,1.0957,-2.2192,1.2037,-5.1434,2.9252
0.3551,-23.6991,28.2358,-5.9481,3.5124,-0.1421,-3.1543,0.1771,-7.7727,0.2591,1.5786,2.2547
-1.1752,-24.8749,-28.8183,-7.1884,1.8195,0.236,-0.1431,-0.3736,4.5232,-0.5114,-6.0871,-11.4014
-6.8441,-34.1212,-28.9853,-4.7725,-1.8535,-0.2802,4.8299,-1.5628,7.1968,-0.0538,-3.7121,3.0913
-0.8032,-9.7056,1.1368,-1.1858,-0.515,0.3974,-1.3288,7.1493,2.7799,-0.4226,-2.4109,-0.281
23.9639,30.2005,13.1723,-12.5138,-2.672,0.1193,-2.2836,7.4709,-20.3257,0.0843,10.4568,-6.1791
-0.9916,41.1782,28.6812,11.9888,-1.4674,-0.4961,5.478,5.635,-0.2264,-0.0429,14.8021,-12.0511
-1.6857,28.3664,24.7071,10.2709,-1.6765,0.2301,-3.9049,-0.8376,5.429,-0.434,-30.7886,-2.1319
1.2176,12.4535,21.7662,-5.7431,1.2473,0.0564,4.8078,-1.104,-13.6754,-0.2148,-1.9056,-3.3481
-1.9294,-4.5113,6.5155,-17.3475,-3.9969,0.268,0.0573,-2.7238,-12.4567,-0.3146,-8.0937,9.7876
10.0993,30.3565,3.4714,-6.1771,2.5167,4.0935,26.3246,1.416,-26.2126,14.5549,13.8156,-45.381
-18.9612,19.3864,-26.9376,-4.6001,-0.7022,6.4932,-15.9825,6.7064,15.994,-10.679,1.7149,55.6078
30.2152,-14.2702,2.1106,-2.8778,0.959,3.9029,-17.6492,-26.1834,-2.5929,-15.4298,5.1049,-41.2656
-22.0865,-18.3867,-27.7115,-0.3635,0.8868,7.1398,45.0653,-0.4302,8.7648,0.4943,-3.3444,35.839
-20.7999,-14.9924,10.7173,-0.5771,-0.8346,2.082,-4.8112,9.6803,-1.0678,0.0566,-1.8873,13.2987
19.6897,14.1006,-14.6851,0.0759,-0.3033,-4.7487,-27.9186,-5.4718,1.8117,-8.0982,10.8372,4.7651
28.5701,29.5148,26.616,5.6587,16.5762,-15.044,-9.9084,5.6345,7.6645,0.7834,0.835,-0.4682
-25.824,7.0053,8.8434,-2.2395,24.3606,0.8993,13.997,-9.208,-12.8944,0.8474,-3.085,1.1302
-11.8445,1.3085,-1.3629,-8.0134,5.3212,1.5827,29.1026,0.97,13.7071,-1.4264,-0.5811,1.6426
31.3904,-26.4688,-11.8145,11.883,-14.5841,-2.0723,-41.8943,-1.0406,-3.9267,6.5573,10.3178,-1.1106
-15.2588,-83.9393,23.7054,-19.354,-16.1583,1.2346,-11.9155,-11.8458,38.768,1.2236,2.3066,-10.2678
-0.7238,-28.326,-25.7488,4.2178,10.1407,-2.7483,20.986,17.512,-0.3298,3.1227,-7.2359,2.8345
-4.7489,-13.3643,13.2933,7.6889,9.2223,1.1566,1.4228,-0.7177,-6.29,1.7847,5.3692,0.5914
19.1505,23.9963,6.5686,-5.4434,-9.9124,-0.4209,12.2918,-4.9244,1.2349,0.7703,-1.7246,-4.1836
9.2197,38.2825,34.6854,-8.1104,-1.861,1.3613,4.216,-1.3678,1.4543,0.3528,-11.1889,4.4447
-2.3472,52.1736,12.3723,10.8568,12.4732,-0.7264,9.3868,-3.7067,29.2534,0.1264,-6.778,-0.0982
14.4672,-3.104,18.94,-11.2094,-5.5966,0.5589,5.7066,3.047,-4.7814,-0.6572,-10.2368,7.9189
-11.4594,12.7242,-19.9051,-7.0543,-4.7952,-0.5852,-1.1118,-10.7242,18.4237,-0.3584,2.2128,-3.5793
-15.5917,22.1631,-32.1361,6.7675,4.102,0.2074,10.2454,-0.704,5.2233,-0.3046,-0.9194,20.8008
21.9544,-17.449,20.4771,6.6798,9.7442,-0.4435,2.9349,7.6099,-25.8434,-0.0995,0.4254,5.742
7.6873,-8.577,2.3038,-5.616,-8.6148,0.3998,-0.1212,-0.1716,5.3438,-0.2724,-4.6704,-9.6859
-9.4262,-0.1316,-23.9513,-7.8066,-1.0149,-0.1107,-0.0381,-0.0878,4.5539,0.0826,-6.6144,7.4407
6.1605,3.47,8.9287,7.3441,4.9291,-0.345,-0.8422,0.6841,4.2098,-0.0669,-1.5658,-6.3407
18.5009,22.2385,17.6933,-2.6259,7.6256,0.3708,0.0857,0.4988,4.5057,-0.1639,0.4373,-1.3163
-15.7427,-4.7844,8.7261,-3.2725,-11.3192,-0.461,11.3423,-6.7497,10.9337,0.0336,4.5745,-13.6682
5.6093,-23.2148,-5.9729,4.8768,-1.2298,0.4934,-4.0345,6.6908,1.3946,2.3907,-11.1704,20.1628
-2.0295,8.8064,-25.8075,1.8437,3.0821,-0.0851,0.2629,0.406,-6.1496,-2.452,-8.8376,12.967
21.4382,15.2995,29.0518,3.6377,0.5933,-0.0843,-0.4412,0.3158,7.4849,-3.4202,10.6218,3.8457
5.7992,-13.53,28.0344,-21.6511,4.2801,0.112,3.2669,-0.2509,4.9796,0.9913,-3.1591,-14.4163
-15.569,-2.296,-19.2707,-17.1244,1.8385,0.3757,5.9398,6.4257,-6.3516,1.7605,0.6822,-8.0696
-2.2805,6.2301,-7.8974,11.0734,-4.4166,-0.3059,1.3079,0.5804,-8.5751,-3.5701,1.7406,-4.8909
2.9014,7.6432,-11.6895,9.7001,-1.1911,0.2114,-0.4112,-0.0572,5.4019,-1.215,-1.6777,19.9692
5.3473,-2.6963,4.5835,10.1798,-0.6339,-0.4651,3.4926,-1.0492,-15.7961,0.1056,-4.6347,-2.9671
